X:12694
T:Paddy Shannon's
R:Reel
S:
H:
N:Liz Carroll/Billy McComiskey play different setting
D:4 Men & a Dog  
Z:Adrian Scahill
M:2/2
L:1/8
K:G
d2ge dBGE|FADF ADFA|d2ge dBGE|DCC2 DEGB|\
d2ge dBGE|FADF A3B|c3g fdde|fgaf g3e:||
dGG2 dGBG|ABcA d3e|=f2ed cAGc|A_BAG =FDCF|\
DE=FE DGG2|BGGB ABcA|d3e =fded|cAFA G4:||


